sources/github.svg

<svg xmlns="http://www.w3.org/2000/svg"  viewBox="0 0 48 48" width="96px" height="96px"><path d="M 24 4 C 19.963209 4 16.192498 5.2011807 13.046875 7.2636719 A 1.50015 1.50015 0 1 0 14.691406 9.7714844 C 17.365783 8.0179755 20.556791 7 24 7 C 33.406292 7 41 14.593708 41 24 C 41 26.707746 40.36968 29.257322 39.248047 31.525391 A 1.5001887 1.5001887 0 0 0 41.9375 32.855469 C 43.257867 30.185538 44 27.174254 44 24 C 44 12.972292 35.027708 4 24 4 z M 15.800781 13.076172 C 14.472781 15.202172 15.273563 17.527813 15.726562 18.507812 C 14.637562 19.788813 14 21.334 14 23 C 14 26.78 17.280547 29.939391 21.685547 30.775391 C 20.376547 31.448391 19.399609 32.67225 19.099609 34.15625 L 17.783203 34.15625 C 16.486203 34.15625 15.98225 33.629234 15.28125 32.740234 C 14.58925 31.851234 13.845172 31.253859 12.951172 31.005859 C 12.469172 30.954859 12.144453 31.321484 12.564453 31.646484 C 13.983453 32.612484 14.081391 34.193516 14.650391 35.228516 C 15.168391 36.160516 16.229687 37 17.429688 37 L 19 37 L 19 40.251953 C 12.043156 38.12245 7 31.665102 7 24 C 7 21.314402 7.6195896 18.783427 8.7246094 16.529297 A 1.50015 1.50015 0 0 0 7.4492188 14.351562 A 1.50015 1.50015 0 0 0 6.03125 15.208984 C 4.7302698 17.862854 4 20.851598 4 24 C 4 35.027708 12.972292 44 24 44 C 28.472909 44 32.618147 42.525863 35.951172 40.039062 A 1.5009817 1.5009817 0 1 0 34.15625 37.632812 C 32.617628 38.780793 30.876119 39.662932 29 40.240234 L 29 35.136719 C 29 33.228719 27.902453 31.591391 26.314453 30.775391 C 30.719453 29.939391 34 26.78 34 23 C 34 21.426 33.423406 19.961609 32.441406 18.724609 C 32.883406 17.356609 33.371219 14.953172 32.199219 13.076172 C 29.948219 13.076172 28.469672 14.622797 27.763672 15.591797 C 26.601672 15.213797 25.333 15 24 15 C 22.667 15 21.398328 15.213797 20.236328 15.591797 C 19.530328 14.622797 18.052781 13.076172 15.800781 13.076172 z"/></svg>

<svg xmlns="http://www.w3.org/2000/svg"  viewBox="0 0 48 48" width="96px" height="96px"><circle cx="28" cy="28" r="18" fill="#9fa8da"/><path fill="none" stroke="#18193f" stroke-linecap="round" stroke-linejoin="round" stroke-width="3" d="M35.054,38.836	C31.97,41.137,28.144,42.5,24,42.5C13.783,42.5,5.5,34.217,5.5,24c0-2.917,0.675-5.676,1.878-8.13"/><path fill="none" stroke="#18193f" stroke-linecap="round" stroke-linejoin="round" stroke-width="3" d="M13.869,8.518	C16.779,6.61,20.26,5.5,24,5.5c10.217,0,18.5,8.283,18.5,18.5c0,2.941-0.686,5.721-1.907,8.19"/><path fill="#18193f" d="M34,23c0-1.574-0.576-3.038-1.558-4.275c0.442-1.368,0.93-3.771-0.242-5.648	c-2.251,0-3.73,1.545-4.436,2.514C26.602,15.213,25.333,15,24,15s-2.602,0.213-3.764,0.591c-0.706-0.969-2.184-2.514-4.436-2.514	c-1.328,2.126-0.526,4.45-0.073,5.43C14.638,19.788,14,21.334,14,23c0,3.78,3.281,6.94,7.686,7.776	c-1.309,0.673-2.287,1.896-2.587,3.38h-1.315c-1.297,0-1.801-0.526-2.502-1.415c-0.692-0.889-1.437-1.488-2.331-1.736	c-0.482-0.051-0.806,0.316-0.386,0.641c1.419,0.966,1.516,2.548,2.085,3.583C15.168,36.161,16.229,37,17.429,37H19v5.942h10v-7.806	c0-1.908-1.098-3.544-2.686-4.36C30.719,29.94,34,26.78,34,23z"/></svg>
